packages/icons/svg/Outline/pause-circle.svg

<svg fill="none" height="24" viewBox="0 0 24 24" width="24" xmlns="http://www.w3.org/2000/svg"><path clip-rule="evenodd" d="m8 9c0-.55.45-1 1-1s1 .45 1 1v6c0 .55-.45 1-1 1s-1-.45-1-1zm5.9995 0c0-.55.45-1 1-1s1 .45 1 1v6c0 .55-.45 1-1 1s-1-.45-1-1zm-1.9995 11.0001c-4.41098 0-7.99998-3.589-7.99998-8 0-4.41104 3.589-8.00003 7.99998-8.00003 4.411 0 8 3.58899 8 8.00003 0 4.411-3.589 8-8 8zm0-18.0001c-5.514 0-10 4.486-10 10s4.486 10 10 10 10-4.486 10-10-4.486-10-10-10z" fill="#6b7280" fill-rule="evenodd"/></svg>

<svg width="24" height="24" viewBox="0 0 24 24" fill="none" xmlns="http://www.w3.org/2000/svg">
<g id="Icon/Outline/pause-circle">
<path id="Mask" fill-rule="evenodd" clip-rule="evenodd" d="M8 9C8 8.45 8.45 8 9 8C9.55 8 10 8.45 10 9V15C10 15.55 9.55 16 9 16C8.45 16 8 15.55 8 15V9ZM13.9995 9C13.9995 8.45 14.4495 8 14.9995 8C15.5495 8 15.9995 8.45 15.9995 9V15C15.9995 15.55 15.5495 16 14.9995 16C14.4495 16 13.9995 15.55 13.9995 15V9ZM12 20C7.589 20 4 16.411 4 12C4 7.589 7.589 4 12 4C16.411 4 20 7.589 20 12C20 16.411 16.411 20 12 20ZM12 2C6.486 2 2 6.486 2 12C2 17.514 6.486 22 12 22C17.514 22 22 17.514 22 12C22 6.486 17.514 2 12 2Z" fill="#000000"/>
</g>
</svg>
